public/images/placeofinterrests/memphis.svg

<?xml version="1.0" encoding="UTF-8" standalone="no"?>
<svg width="92px" height="47px" viewBox="0 0 92 47" version="1.1" xmlns="http://www.w3.org/2000/svg" xmlns:xlink="http://www.w3.org/1999/xlink">
    <!-- Generator: Sketch 42 (36781) - http://www.bohemiancoding.com/sketch -->
    <title>Memphis</title>
    <desc>Created with Sketch.</desc>
    <defs></defs>
    <g id="Page-1" stroke="none" stroke-width="1" fill="none" fill-rule="evenodd">
        <g id="Memphis">
            <polygon id="Path-11" fill="#FFFFFF" points="3 5 0 47 92 43 85 0"></polygon>
            <path d="M11.4193151,11.982375 L11.4193151,36 L15.7621901,36 L15.7621901,18.725625 L21.2428151,26.023875 L21.2428151,26.162625 L21.3468596,26.162625 L21.4093151,26.245875 L21.5203151,26.162625 L25.3220651,26.162625 L25.4330651,26.245875 L25.4955207,26.162625 L25.5995651,26.162625 L25.5995651,26.023875 L31.0801901,18.725625 L31.0801901,36 L35.4369401,36 L35.4369401,11.982375 L31.0801901,11.982375 L31.0801901,12.1142056 L23.4211901,21.694875 L15.7621901,12.1176472 L15.7621901,11.982375 L11.4193151,11.982375 Z M38.8964384,11.982375 L38.8964384,36 L51.1064384,36 L51.1064384,31.657125 L43.2393134,31.657125 L43.2393134,26.1765 L49.1361884,26.1765 L49.1361884,21.81975 L43.2393134,21.81975 L43.2393134,16.339125 L51.1064384,16.339125 L51.1064384,11.982375 L38.8964384,11.982375 Z M54.2375616,11.982375 L54.2375616,36 L58.5804366,36 L58.5804366,18.725625 L64.0610616,26.023875 L64.0610616,26.162625 L64.1651061,26.162625 L64.2275616,26.245875 L64.3385616,26.162625 L68.1403116,26.162625 L68.2513116,26.245875 L68.3137672,26.162625 L68.4178116,26.162625 L68.4178116,26.023875 L73.8984366,18.725625 L73.8984366,36 L78.2551866,36 L78.2551866,11.982375 L73.8984366,11.982375 L73.8984366,12.1142056 L66.2394366,21.694875 L58.5804366,12.1176472 L58.5804366,11.982375 L54.2375616,11.982375 Z" id="MEM" fill="#18252D"></path>
        </g>
    </g>
</svg>

<svg width="92" height="47" viewBox="0 0 92 47" xmlns="http://www.w3.org/2000/svg"><title>Memphis</title><g fill="none" fill-rule="evenodd"><path fill="#FFF" d="M3 5L0 47l92-4-7-43z"/><path d="M11.42 11.982V36h4.342V18.726l5.48 7.298v.139h.105l.062.083.111-.083h3.802l.111.083.063-.083h.104v-.14l5.48-7.297V36h4.357V11.982H31.08v.132l-7.659 9.58-7.659-9.576v-.136H11.42zm27.476 0V36h12.21v-4.343H43.24v-5.48h5.897V21.82H43.24v-5.48h7.867v-4.358h-12.21zm15.342 0V36h4.342V18.726l5.481 7.298v.139h.104l.063.083.11-.083h3.802l.111.083.063-.083h.104v-.14l5.48-7.297V36h4.357V11.982h-4.357v.132l-7.659 9.58-7.659-9.576v-.136h-4.342z" fill="#18252D"/></g></svg>
